X: 11102
T: WEST TISBURY WOMAN
C: Bob McQuillen 7 July 2000
B: Bob's Note Book 11 #102
%R: reel
Z: 2019 John Chambers <jc:trillian.mit.edu>
M: C
L: 1/8
K: D
dB \
| A2FA BAFA | BdAF D2gf | e2eg fdgf | edcB A2dB |
| A2FA BAFA | BdAF DFAd | cedB Aceg | f2d2 d2 :|
|: fg \
| agfa fdAB | defd A2ef | geag fdBd | AdAF E2AG |
| FDEF GBAG | FDFA Bcde | fdfa becd | e2d2 d2 :|
%%begintext align
%% Off the Massachusetts coast is
%% Martha's Vineyard (pro. vin...) which is where West Tisbury
%% is and also where Sandi Atwood lives. She takes the ferry
%% to the mainland twice a year, once in January to go to the
%% Ralph Page Legacy Weekend in NH and once to go to the New
%% England Folk Festival in April in MA. She blesses us with her
%% presence while she dances up a storm, and then heads back
%% to the island. It sure is nice to see you, Sandi - You're a lovely
%% West Tisbury Woman.
%%endtext

%%sep 1 1 500

%%sep 1 1 500

